symbols/web/card_membership/materialsymbolsrounded/card_membership_wght100gradN25fill1_20px.svg

<svg xmlns="http://www.w3.org/2000/svg" height="20" width="20"><path d="M8.75 15.854q-.312.188-.615-.01-.302-.198-.302-.552V13H4.146q-.542 0-.917-.375t-.375-.896V4.125q0-.521.375-.906.375-.386.917-.386h11.729q.521 0 .896.386.375.385.375.906v7.604q0 .521-.375.896t-.896.375h-3.708v2.292q0 .354-.292.552-.292.198-.604.01L10 15.25Zm-5.271-5.542h13.063V8.75H3.479Z"/></svg>

<svg xmlns="http://www.w3.org/2000/svg" height="20" width="20"><path d="M8.75 15.854Q8.438 16.042 8.135 15.844Q7.833 15.646 7.833 15.292V13H4.146Q3.604 13 3.229 12.625Q2.854 12.25 2.854 11.729V4.125Q2.854 3.604 3.229 3.219Q3.604 2.833 4.146 2.833H15.875Q16.396 2.833 16.771 3.219Q17.146 3.604 17.146 4.125V11.729Q17.146 12.25 16.771 12.625Q16.396 13 15.875 13H12.167V15.292Q12.167 15.646 11.875 15.844Q11.583 16.042 11.271 15.854L10 15.25ZM3.479 10.312H16.542V8.75H3.479Z"/></svg>
